; generated by Slic3r 1.2.9 on 2016-11-08 at 20:40:03

; external perimeters extrusion width = 0.50mm
; perimeters extrusion width = 0.73mm
; infill extrusion width = 0.73mm
; solid infill extrusion width = 0.73mm
; top infill extrusion width = 0.73mm
; support material extrusion width = 0.50mm

M104 S215 ; set temperature
G28 ; home all axes
G1 X140 F1000
;G1 E5 F250 extrude a little bit
G4 S6 ; wait 6 seconds "S" is a marlin parameter

M109 S215 ; wait for temperature to be reached
G21 ; set units to millimeters
G90 ; use absolute coordinates
M82 ; use absolute distances for extrusion
G92 E0
G1 E-1.00000 F900.00000
G92 E0
G1 Z0.295 F1800.000
G1 Z0.591 F1800.000
G1 X80.241 Y49.830 F1800.000
G1 Z0.295 F1800.000
G1 E1.00000 F900.00000
G1 X85.321 Y41.650 E1.19806 F720.000
G1 X87.032 Y39.648 E1.25223
G1 X89.263 Y38.248 E1.30640
G1 X92.729 Y37.530 E1.37920
G1 X124.329 Y37.530 E2.02915
G1 X126.933 Y37.928 E2.08332
G1 X129.299 Y39.085 E2.13749 F720.000
G1 X131.211 Y40.895 E2.19166
G1 X132.668 Y43.698 E2.25663
G1 X159.214 Y130.429 E4.12222
G1 X159.439 Y131.333 E4.14137
G1 X159.518 Y131.744 E4.14998
G1 X159.673 Y133.186 E4.17981
G1 X159.683 Y133.610 E4.18853
G1 X159.593 Y135.083 E4.21888
G1 X159.530 Y135.512 E4.22780
G1 X159.192 Y136.952 E4.25822
G1 X159.057 Y137.364 E4.26713
G1 X158.482 Y138.722 E4.29747
G1 X158.285 Y139.097 E4.30620
G1 X157.503 Y140.322 E4.33607
G1 X157.249 Y140.654 E4.34468
G1 X142.836 Y158.221 E4.81205
G1 X142.094 Y159.047 E4.83489
G1 X140.542 Y160.376 E4.87690
G1 X140.037 Y160.714 E4.88940
G1 X138.232 Y161.638 E4.93111
G1 X137.670 Y161.848 E4.94345
G1 X135.679 Y162.333 E4.98560
G1 X135.070 Y162.407 E4.99823
G1 X132.919 Y162.400 E5.04247
G1 X131.767 Y162.242 E5.06639
G1 X41.976 Y146.218 E6.94240
G1 X40.910 Y145.954 E6.96498
G1 X40.137 Y145.711 E6.98165
G1 X39.028 Y145.277 E7.00614
G1 X38.330 Y144.947 E7.02203
G1 X37.178 Y144.291 E7.04930
G1 X36.575 Y143.884 E7.06426
G1 X35.910 Y143.387 E7.08133
G1 X34.321 Y142.078 E7.12366
G1 X33.451 Y141.256 E7.14829
G1 X33.110 Y140.885 E7.15866
G1 X32.102 Y139.552 E7.19303
G1 X31.870 Y139.175 E7.20214
G1 X31.228 Y137.909 E7.23132
G1 X31.081 Y137.550 E7.23930
G1 X30.624 Y136.071 E7.27114
G1 X30.507 Y135.523 E7.28268
G1 X30.315 Y133.627 E7.32186
G1 X30.319 Y133.154 E7.33158
G1 X30.439 Y131.787 E7.35982
G1 X30.506 Y131.386 E7.36818
G1 X30.846 Y130.035 E7.39684
G1 X30.999 Y129.584 E7.40662
G1 X31.726 Y127.988 E7.44269
G1 X32.121 Y127.317 E7.45871
G1 X80.201 Y49.894 E9.33324
G1 X80.626 Y50.069 F1800.000
G1 X85.706 Y41.889 E9.53130 F720.000
G1 X87.380 Y39.947 E9.58403
G1 X89.569 Y38.612 E9.63677
G1 X92.729 Y37.984 E9.70304
G1 X124.329 Y37.984 E10.35300
G1 X126.862 Y38.381 E10.40573
G1 X129.151 Y39.536 E10.45847 F720.000
G1 X130.977 Y41.336 E10.51120
G1 X132.234 Y43.831 E10.56867
G1 X158.780 Y130.562 E12.43425
G1 X158.993 Y131.419 E12.45241
G1 X159.073 Y131.830 E12.46102
G1 X159.219 Y133.197 E12.48930
G1 X159.229 Y133.621 E12.49802
G1 X159.144 Y135.017 E12.52680
G1 X159.081 Y135.446 E12.53571
G1 X158.761 Y136.811 E12.56455
G1 X158.626 Y137.223 E12.57346
G1 X158.081 Y138.511 E12.60223
G1 X157.884 Y138.886 E12.61095
G1 X157.143 Y140.047 E12.63927
G1 X156.889 Y140.379 E12.64788
G1 X142.485 Y157.934 E13.11492
G1 X142.174 Y158.291 E13.12467
G1 X141.761 Y158.740 E13.13722
G1 X140.290 Y159.999 E13.17704
G1 X139.785 Y160.337 E13.18954
G1 X138.074 Y161.214 E13.22908
G1 X137.512 Y161.423 E13.24142
G1 X135.624 Y161.883 E13.28138
G1 X135.015 Y161.957 E13.29400
G1 X132.976 Y161.950 E13.33593
G1 X131.846 Y161.795 E13.35939
G1 X42.056 Y145.771 E15.23538
G1 X41.046 Y145.522 E15.25679
G1 X40.273 Y145.279 E15.27346
G1 X39.222 Y144.867 E15.29667
G1 X38.524 Y144.537 E15.31256
G1 X37.431 Y143.915 E15.33841
G1 X36.828 Y143.508 E15.35337
G1 X36.198 Y143.037 E15.36956
G1 X34.609 Y141.728 E15.41189
G1 X33.785 Y140.948 E15.43524
G1 X33.443 Y140.578 E15.44560
G1 X32.488 Y139.314 E15.47818
G1 X32.256 Y138.937 E15.48729
G1 X31.647 Y137.738 E15.51495
G1 X31.501 Y137.379 E15.52293
G1 X31.068 Y135.977 E15.55311
G1 X30.950 Y135.428 E15.56465
G1 X30.769 Y133.631 E15.60179
G1 X30.773 Y133.158 E15.61152
G1 X30.886 Y131.862 E15.63829
G1 X30.953 Y131.461 E15.64664
G1 X31.276 Y130.180 E15.67382
G1 X31.428 Y129.730 E15.68360
G1 X32.117 Y128.217 E15.71779
G1 X32.506 Y127.557 E15.73355
G1 X80.587 Y50.133 E17.60808
G1 X81.011 Y50.309 F1800.000
G1 X86.091 Y42.128 E17.80614 F720.000
G1 X87.727 Y40.248 E17.85740
G1 X89.871 Y38.978 E17.90866
G1 X92.729 Y38.437 E17.96848
G1 X124.329 Y38.437 E18.61843
G1 X126.789 Y38.834 E18.66969
G1 X128.999 Y39.986 E18.72095 F720.000
G1 X130.734 Y41.775 E18.77221
G1 X131.801 Y43.964 E18.82228
G1 X158.347 Y130.695 E20.68787
G1 X158.548 Y131.505 E20.70503
G1 X158.627 Y131.916 E20.71364
G1 X158.766 Y133.208 E20.74036
G1 X158.776 Y133.632 E20.74909
G1 X158.695 Y134.951 E20.77628
G1 X158.633 Y135.380 E20.78520
G1 X158.330 Y136.671 E20.81246
G1 X158.195 Y137.082 E20.82137
G1 X157.680 Y138.300 E20.84855
G1 X157.482 Y138.675 E20.85728
G1 X156.782 Y139.772 E20.88404
G1 X156.528 Y140.104 E20.89265
G1 X142.135 Y157.646 E21.35936
G1 X141.841 Y157.984 E21.36858
G1 X141.427 Y158.432 E21.38112
G1 X140.037 Y159.623 E21.41876
G1 X139.533 Y159.961 E21.43125
G1 X137.916 Y160.789 E21.46862
G1 X137.353 Y160.998 E21.48096
G1 X135.569 Y161.433 E21.51873
G1 X134.961 Y161.507 E21.53134
G1 X133.034 Y161.500 E21.57097
G1 X131.926 Y161.349 E21.59397
G1 X42.137 Y145.325 E23.46993
G1 X41.182 Y145.090 E23.49017
G1 X40.409 Y144.846 E23.50684
G1 X39.416 Y144.457 E23.52878
G1 X38.717 Y144.127 E23.54467
G1 X37.685 Y143.539 E23.56910
G1 X37.082 Y143.132 E23.58407
G1 X36.486 Y142.687 E23.59936
G1 X34.898 Y141.378 E23.64170
G1 X34.118 Y140.641 E23.66376
G1 X33.777 Y140.271 E23.67411
G1 X32.874 Y139.077 E23.70491
G1 X32.643 Y138.700 E23.71401
G1 X32.067 Y137.566 E23.74016
G1 X31.920 Y137.207 E23.74813
G1 X31.511 Y135.882 E23.77666
G1 X31.394 Y135.333 E23.78820
G1 X31.222 Y133.635 E23.82331
G1 X31.226 Y133.162 E23.83303
G1 X31.333 Y131.937 E23.85834
G1 X31.401 Y131.537 E23.86668
G1 X31.705 Y130.326 E23.89237
G1 X31.858 Y129.875 E23.90215
G1 X32.509 Y128.445 E23.93447
G1 X32.891 Y127.796 E23.94996
G1 X80.972 Y50.372 E25.82450
G1 X81.397 Y50.548 F1800.000
G1 X86.476 Y42.368 E26.02255 F720.000
G1 X88.072 Y40.551 E26.07229
G1 X90.171 Y39.349 E26.12203
G1 X92.729 Y38.890 E26.17549
G1 X124.329 Y38.890 E26.82544
G1 X126.715 Y39.288 E26.87518
G1 X128.842 Y40.437 E26.92492 F720.000
G1 X130.483 Y42.213 E26.97466
G1 X131.367 Y44.096 E27.01745
G1 X157.913 Y130.828 E28.88303
G1 X158.103 Y131.590 E28.89920
G1 X158.182 Y132.002 E28.90781
G1 X158.313 Y133.218 E28.93298
G1 X158.323 Y133.642 E28.94171
G1 X158.247 Y134.886 E28.96733
G1 X158.184 Y135.314 E28.97624
G1 X157.899 Y136.530 E29.00192
G1 X157.764 Y136.942 E29.01083
G1 X157.279 Y138.088 E29.03644
G1 X157.081 Y138.463 E29.04516
G1 X156.422 Y139.497 E29.07037
G1 X156.168 Y139.830 E29.07898
G1 X141.507 Y157.677 E29.55404
G1 X141.094 Y158.125 E29.56657
G1 X139.785 Y159.246 E29.60203
G1 X139.281 Y159.584 E29.61451
G1 X137.757 Y160.364 E29.64971
G1 X137.195 Y160.573 E29.66205
G1 X135.515 Y160.983 E29.69763
G1 X134.906 Y161.057 E29.71023
G1 X133.091 Y161.050 E29.74757
G1 X132.006 Y160.903 E29.77010
G1 X42.218 Y144.879 E31.64604
G1 X41.318 Y144.657 E31.66511
G1 X40.545 Y144.414 E31.68177
G1 X39.610 Y144.047 E31.70244
G1 X38.911 Y143.717 E31.71833
G1 X37.939 Y143.163 E31.74135
G1 X37.336 Y142.756 E31.75631
G1 X36.775 Y142.337 E31.77071
G1 X35.186 Y141.028 E31.81305
G1 X34.452 Y140.334 E31.83383
G1 X34.111 Y139.964 E31.84417
G1 X33.261 Y138.839 E31.87318
G1 X33.029 Y138.462 E31.88229
G1 X32.487 Y137.394 E31.90692
G1 X32.340 Y137.035 E31.91489
G1 X31.954 Y135.787 E31.94177
G1 X31.837 Y135.239 E31.95330
G1 X31.675 Y133.639 E31.98637
G1 X31.679 Y133.166 E31.99610
G1 X31.781 Y132.012 E32.01993
G1 X31.848 Y131.612 E32.02827
G1 X32.135 Y130.471 E32.05247
G1 X32.287 Y130.021 E32.06225
G1 X32.901 Y128.674 E32.09269
G1 X33.276 Y128.035 E32.10793
G1 X81.357 Y50.612 E33.98247
G1 X81.782 Y50.787 F1800.000
G1 X86.862 Y42.607 E34.18052 F720.000
G1 X88.417 Y40.855 E34.22869
G1 X90.468 Y39.724 E34.27687
G1 X92.729 Y39.344 E34.32404
G1 X124.329 Y39.344 E34.97399
G1 X126.637 Y39.741 E35.02216
G1 X128.680 Y40.886 E35.07033 F720.000
G1 X130.223 Y42.649 E35.11851
G1 X130.934 Y44.229 E35.15414
G1 X157.480 Y130.960 E37.01973
G1 X157.658 Y131.676 E37.03490
G1 X157.737 Y132.087 E37.04351
G1 X157.859 Y133.229 E37.06713
G1 X157.870 Y133.653 E37.07586
G1 X157.798 Y134.820 E37.09990
G1 X157.735 Y135.248 E37.10881
G1 X157.468 Y136.389 E37.13291
G1 X157.333 Y136.801 E37.14182
G1 X156.878 Y137.877 E37.16585
G1 X156.680 Y138.252 E37.17457
G1 X156.061 Y139.222 E37.19823
G1 X155.807 Y139.555 E37.20684
G1 X141.174 Y157.369 E37.68103
G1 X140.761 Y157.818 E37.69356
G1 X139.532 Y158.870 E37.72683
G1 X139.028 Y159.207 E37.73930
G1 X137.599 Y159.939 E37.77234
G1 X137.037 Y160.149 E37.78468
G1 X135.460 Y160.533 E37.81806
G1 X134.852 Y160.606 E37.83065
G1 X133.149 Y160.601 E37.86569
G1 X132.085 Y160.456 E37.88776
G1 X42.299 Y144.433 E39.76368
G1 X41.454 Y144.225 E39.78157
G1 X40.681 Y143.981 E39.79824
G1 X39.803 Y143.637 E39.81763
G1 X39.105 Y143.307 E39.83352
G1 X38.192 Y142.787 E39.85512
G1 X37.589 Y142.380 E39.87008
G1 X37.063 Y141.987 E39.88360
G1 X35.474 Y140.679 E39.92594
G1 X34.785 Y140.027 E39.94544
G1 X34.445 Y139.657 E39.95577
G1 X33.647 Y138.602 E39.98299
G1 X33.415 Y138.225 E39.99209
G1 X32.906 Y137.223 E40.01521
G1 X32.760 Y136.864 E40.02318
G1 X32.398 Y135.692 E40.04840
G1 X32.281 Y135.144 E40.05993
G1 X32.129 Y133.643 E40.09096
G1 X32.133 Y133.170 E40.10069
G1 X32.228 Y132.087 E40.12306
G1 X32.295 Y131.687 E40.13140
G1 X32.564 Y130.617 E40.15410
G1 X32.717 Y130.166 E40.16388
G1 X33.292 Y128.902 E40.19245
G1 X33.662 Y128.274 E40.20743
G1 X81.742 Y50.851 E42.08197
G1 X82.167 Y51.026 F1800.000
G1 X87.247 Y42.846 E42.28002 F720.000
G1 X88.760 Y41.162 E42.32657
G1 X90.761 Y40.105 E42.37313
G1 X92.729 Y39.797 E42.41411
G1 X124.329 Y39.797 E43.06406
G1 X126.557 Y40.194 E43.11061
G1 X128.512 Y41.336 E43.15717 F720.000
G1 X129.951 Y43.082 E43.20372
G1 X130.500 Y44.362 E43.23235
G1 X157.046 Y131.093 E45.09794
G1 X157.213 Y131.762 E45.11211
G1 X157.292 Y132.173 E45.12072
G1 X157.406 Y133.240 E45.14280
G1 X157.416 Y133.664 E45.15152
G1 X157.350 Y134.754 E45.17398
G1 X157.287 Y135.183 E45.18289
G1 X157.036 Y136.248 E45.20541
G1 X156.902 Y136.660 E45.21432
G1 X156.477 Y137.666 E45.23677
G1 X156.279 Y138.041 E45.24550
G1 X155.701 Y138.947 E45.26760
G1 X155.447 Y139.280 E45.27621
G1 X140.841 Y157.062 E45.74953
G1 X140.428 Y157.510 E45.76206
G1 X139.280 Y158.493 E45.79315
G1 X138.776 Y158.830 E45.80561
G1 X137.441 Y159.514 E45.83647
G1 X136.878 Y159.724 E45.84881
G1 X135.405 Y160.083 E45.88001
G1 X134.798 Y160.156 E45.89259
G1 X133.206 Y160.151 E45.92533
G1 X132.165 Y160.010 E45.94694
G1 X42.379 Y143.987 E47.82283
G1 X41.590 Y143.792 E47.83955
G1 X40.817 Y143.549 E47.85621
G1 X39.997 Y143.228 E47.87433
G1 X39.299 Y142.897 E47.89022
G1 X38.446 Y142.412 E47.91041
G1 X37.843 Y142.005 E47.92537
G1 X37.351 Y141.637 E47.93800
G1 X35.762 Y140.329 E47.98033
G1 X35.119 Y139.720 E47.99856
G1 X34.779 Y139.351 E48.00888
G1 X34.033 Y138.364 E48.03431
G1 X33.801 Y137.987 E48.04341
G1 X33.326 Y137.051 E48.06501
G1 X33.179 Y136.692 E48.07298
G1 X32.841 Y135.597 E48.09655
G1 X32.724 Y135.049 E48.10807
G1 X32.582 Y133.647 E48.13707
G1 X32.586 Y133.174 E48.14680
G1 X32.675 Y132.162 E48.16770
G1 X32.742 Y131.762 E48.17603
G1 X32.994 Y130.762 E48.19724
G1 X33.146 Y130.311 E48.20703
G1 X33.684 Y129.130 E48.23372
G1 X34.047 Y128.513 E48.24844
G1 X82.127 Y51.090 E50.12298
G1 E49.12298 F900.00000
G92 E0
G1 Z0.591 F1800.000
G1 X125.195 Y122.286 F1800.000
G1 Z0.295 F1800.000
G1 E1.00000 F900.00000
G1 X129.773 Y124.580 E1.10532 F720.000
G1 X133.844 Y126.765 E1.20035
G1 X140.507 Y130.395 E1.35642
G1 X139.897 Y132.879 E1.40903
G1 X128.772 Y133.181 E1.63793
G1 X129.175 Y134.639 E1.66905
G1 X129.844 Y137.656 E1.73261
G1 X130.904 Y142.869 E1.84202
G1 X128.794 Y144.063 E1.89188
G1 X123.389 Y139.111 E2.04265
G1 X115.868 Y132.113 E2.25395
G1 X123.509 Y132.001 E2.41112
G1 X126.150 Y132.012 E2.46544
G1 X127.436 Y132.099 E2.49196
G1 X126.136 Y127.342 E2.59339
G1 X125.805 Y125.987 E2.62208
G1 X125.208 Y122.360 E2.69769
G1 X125.787 Y123.090 F1800.000
G1 X129.564 Y124.983 E2.78459 F720.000
G1 X133.629 Y127.164 E2.87946
G1 X139.984 Y130.626 E3.02831
G1 X139.539 Y132.435 E3.06663
G1 X128.180 Y132.743 E3.30034
G1 X128.735 Y134.749 E3.34313
G1 X129.400 Y137.751 E3.40637
G1 X130.394 Y142.637 E3.50893
G1 X128.858 Y143.506 E3.54524
G1 X123.697 Y138.778 E3.68920
G1 X117.003 Y132.550 E3.87725
G1 X123.511 Y132.454 E4.01112
G1 X126.133 Y132.466 E4.06505
G1 X128.042 Y132.594 E4.10439
G1 X126.575 Y127.228 E4.21880
G1 X126.250 Y125.896 E4.24700
G1 X125.799 Y123.164 E4.30397
G1 E3.30397 F900.00000
G92 E0
G1 Z0.591 F1800.000
G1 X127.789 Y133.032 F1800.000
G1 Z0.295 F1800.000
G1 E1.00000 F900.00000
G1 X128.295 Y134.858 E1.03898 F432.000
G1 X128.957 Y137.845 E1.10190
G1 X129.884 Y142.404 E1.19760
G1 X128.921 Y142.949 E1.22036
G1 X124.004 Y138.445 E1.35751
G1 X118.138 Y132.987 E1.52231
G1 X123.514 Y132.908 E1.63289
G1 X126.117 Y132.919 E1.68644
G1 X127.714 Y133.026 E1.71937
G1 X127.438 Y133.462 F1800.000
G1 X127.855 Y134.968 E1.75150 F432.000
G1 X128.513 Y137.939 E1.81409
G1 X129.374 Y142.172 E1.90293
G1 X128.984 Y142.392 E1.91215
G1 X124.312 Y138.112 E2.04248
G1 X119.273 Y133.424 E2.18404
G1 X123.516 Y133.361 E2.27132
G1 X126.101 Y133.372 E2.32449
G1 X127.363 Y133.457 E2.35051
G1 X127.932 Y133.384 F1800.000
G1 X128.427 Y132.283 F1800.000
G1 X127.014 Y127.115 E2.46071 F432.000
G1 X126.694 Y125.806 E2.48843
G1 X126.379 Y123.894 E2.52829
G1 X129.355 Y125.386 E2.59677
G1 X133.413 Y127.562 E2.69148
G1 X139.460 Y130.857 E2.83311
G1 X139.181 Y131.991 E2.85713
G1 X128.502 Y132.281 E3.07687
G1 X128.770 Y131.820 F1800.000
G1 X127.453 Y127.001 E3.17963 F432.000
G1 X127.139 Y125.715 E3.20686
G1 X126.971 Y124.697 E3.22807
G1 X129.147 Y125.788 E3.27813
G1 X133.197 Y127.961 E3.37268
G1 X138.936 Y131.088 E3.50710
G1 X138.823 Y131.547 E3.51682
G1 X128.845 Y131.818 E3.72213
G1 X128.279 Y131.913 F1800.000
G1 E2.72213 F900.00000
G92 E0
G1 Z0.591 F1800.000
G1 X123.483 Y120.082 F1800.000
G1 Z0.295 F1800.000
G1 E1.00000 F900.00000
G1 X99.725 Y108.442 E1.54414 F720.000
G1 X97.188 Y107.233 E1.60196
G1 X97.775 Y104.632 E1.65682
G1 X120.973 Y104.632 E2.13395
G1 X120.813 Y106.369 E2.16983
G1 X120.881 Y107.262 E2.18825
G1 X121.104 Y108.561 E2.21536
G1 X122.262 Y114.291 E2.33560
G1 X123.467 Y120.009 E2.45579
G1 X122.847 Y119.266 F1800.000
G1 X99.923 Y108.034 E2.98086 F720.000
G1 X97.710 Y106.980 E3.03128
G1 X98.138 Y105.085 E3.07123
G1 X120.476 Y105.085 E3.53068
G1 X120.358 Y106.365 E3.55712
G1 X120.431 Y107.318 E3.57677
G1 X120.659 Y108.644 E3.60445
G1 X121.818 Y114.383 E3.72487
G1 X122.832 Y119.192 E3.82597
G1 X122.212 Y118.450 F1800.000
G1 X100.120 Y107.626 E4.33197 F720.000
G1 X98.232 Y106.726 E4.37498
G1 X98.500 Y105.539 E4.40003
G1 X119.979 Y105.539 E4.84181
G1 X119.903 Y106.362 E4.85881
G1 X119.980 Y107.373 E4.87968
G1 X120.213 Y108.727 E4.90793
G1 X121.374 Y114.474 E5.02853
G1 X122.197 Y118.376 E5.11054
G1 X121.577 Y117.633 F1800.000
G1 X100.317 Y107.217 E5.59747 F432.000
G1 X98.754 Y106.473 E5.63309
G1 X98.863 Y105.992 E5.64322
G1 X119.482 Y105.992 E6.06732
G1 X119.448 Y106.358 E6.07488
G1 X119.530 Y107.429 E6.09698
G1 X119.767 Y108.811 E6.12581
G1 X120.930 Y114.566 E6.24658
G1 X121.561 Y117.560 E6.30951
G1 X121.460 Y118.120 F1800.000
G1 E5.30951 F900.00000
G92 E0
G1 Z0.591 F1800.000
